icons/24x24_calendar_edit_outline.svg

<svg width="24" height="24" viewBox="0 0 24 24" fill="none" xmlns="http://www.w3.org/2000/svg">
<path fill-rule="evenodd" clip-rule="evenodd" d="M21 14.083C20.6748 14.0284 20.3407 14 20 14C19.6593 14 19.3252 14.0284 19 14.083V10H5V19H14.083C14.0284 19.3252 14 19.6593 14 20C14 20.3407 14.0284 20.6748 14.083 21H5C3.89543 21 3 20.1046 3 19V7C3 5.89543 3.89543 5 5 5H7V4C7 3.44772 7.44772 3 8 3C8.55228 3 9 3.44772 9 4V5H15V4C15 3.44772 15.4477 3 16 3C16.5523 3 17 3.44772 17 4V5H19C20.1046 5 21 5.89543 21 7V14.083Z" fill="black"/>
<path d="M22.622 16C22.2692 16 21.9165 16.1344 21.6478 16.4038L16.7758 21.2757L16.0176 23.5503C15.958 23.7293 16.0547 23.9227 16.2337 23.9824C16.3038 24.0058 16.3796 24.0058 16.4497 23.9824L18.7243 23.2242L23.5962 18.3522C23.8656 18.0835 24 17.7308 24 17.378C24 17.0252 23.8656 16.6732 23.5962 16.4038C23.3268 16.1344 22.9748 16 22.622 16Z" fill="black"/>
</svg>

<svg width="24" height="24" fill="none" xmlns="http://www.w3.org/2000/svg"><path fill-rule="evenodd" clip-rule="evenodd" d="M21 14.083a6.036 6.036 0 0 0-2 0V10H5v9h9.083a6.036 6.036 0 0 0 0 2H5a2 2 0 0 1-2-2V7a2 2 0 0 1 2-2h2V4a1 1 0 0 1 2 0v1h6V4a1 1 0 1 1 2 0v1h2a2 2 0 0 1 2 2v7.083Z" fill="#000"/><path d="M22.622 16c-.353 0-.706.134-.974.404l-4.872 4.872-.758 2.274a.342.342 0 0 0 .432.432l2.274-.758 4.872-4.872a1.372 1.372 0 0 0 0-1.948 1.372 1.372 0 0 0-.974-.404Z" fill="#000"/></svg>
